contributed-vectors/canary.svg

<?xml version="1.0" encoding="UTF-8" standalone="no"?>
<svg
   xmlns:dc="http://purl.org/dc/elements/1.1/"
   xmlns:cc="http://creativecommons.org/ns#"
   xmlns:rdf="http://www.w3.org/1999/02/22-rdf-syntax-ns#"
   xmlns:svg="http://www.w3.org/2000/svg"
   xmlns="http://www.w3.org/2000/svg"
   xmlns:sodipodi="http://sodipodi.sourceforge.net/DTD/sodipodi-0.dtd"
   xmlns:inkscape="http://www.inkscape.org/namespaces/inkscape"
   width="100%"
   height="100%"
   viewBox="0 0 192 192"
   version="1.1"
   xml:space="preserve"
   style="fill-rule:evenodd;clip-rule:evenodd;stroke-linejoin:round;stroke-miterlimit:2;"
   id="svg21"
   sodipodi:docname="canary.svg"
   inkscape:export-filename="/home/jphilippe/github/delta/android/contributed-vectors/canary.png"
   inkscape:export-xdpi="96"
   inkscape:export-ydpi="96"
   inkscape:version="1.0.1 (3bc2e813f5, 2020-09-07)"><metadata
   id="metadata27"><rdf:RDF><cc:Work
       rdf:about=""><dc:format>image/svg+xml</dc:format><dc:type
         rdf:resource="http://purl.org/dc/dcmitype/StillImage" /></cc:Work></rdf:RDF></metadata><defs
   id="defs25" /><sodipodi:namedview
   pagecolor="#ffffff"
   bordercolor="#666666"
   borderopacity="1"
   objecttolerance="10"
   gridtolerance="10"
   guidetolerance="10"
   inkscape:pageopacity="0"
   inkscape:pageshadow="2"
   inkscape:window-width="1884"
   inkscape:window-height="1052"
   id="namedview23"
   showgrid="false"
   inkscape:zoom="3.3697917"
   inkscape:cx="96"
   inkscape:cy="96"
   inkscape:window-x="36"
   inkscape:window-y="0"
   inkscape:window-maximized="1"
   inkscape:current-layer="svg21" />
    <g
   transform="translate(8,8)"
   id="g4"
   style="fill:#545859;fill-opacity:1">
            <circle
   cx="88"
   cy="88"
   r="88"
   style="fill:#545859;fill-opacity:1"
   id="circle2" />
        </g><g
   transform="matrix(0.855166,0,0,0.855166,9.41555,15.9945)"
   id="g18">
            <path
   d="m 144.665,134.018 12.422,6.228 -2.482,-10.705 -11.111,3.306"
   style="fill:#fcecdc"
   id="path6" />
            <path
   d="m 55.979,58.253 -19.924,7.971 30.471,5.985 z"
   style="fill:#fcecdc"
   id="path8" />
            <path
   d="m 123.264,143.659 31.341,-14.118 -40.537,1.392 9.196,12.726"
   style="fill:#f9de81"
   id="path10" />
            <path
   d="m 115.98,94.7 32.702,-46.571 -38.761,5.853 -3.752,50.528"
   style="fill:#f9de81"
   id="path12" />
            <path
   d="M 70.823,106.268 55.979,58.253 93.051,85.552 Z"
   style="fill:#f9de81"
   id="path14" />
            <path
   d="m 109.921,53.982 -39.098,52.286 52.441,37.391 z"
   style="fill:#fdf5d9"
   id="path16" />
        </g>
<style
   type="text/css"
   id="style853">
	.st0{fill:#FFFFFF;}
</style></svg>

<?xml version="1.0" encoding="UTF-8" standalone="no"?>
<!DOCTYPE svg PUBLIC "-//W3C//DTD SVG 1.1//EN" "http://www.w3.org/Graphics/SVG/1.1/DTD/svg11.dtd">
<svg width="100%" height="100%" viewBox="0 0 192 192" version="1.1" xmlns="http://www.w3.org/2000/svg" xmlns:xlink="http://www.w3.org/1999/xlink" xml:space="preserve" xmlns:serif="http://www.serif.com/" style="fill-rule:evenodd;clip-rule:evenodd;stroke-linejoin:round;stroke-miterlimit:2;">
    <g id="Layer1">
        <g transform="matrix(1,0,0,1,8,8)">
            <circle cx="88" cy="88" r="88" style="fill:rgb(74,74,74);"/>
        </g>
        <g transform="matrix(0.855166,0,0,0.855166,9.41555,15.9945)">
            <path d="M144.665,134.018L157.087,140.246L154.605,129.541L143.494,132.847" style="fill:rgb(252,236,220);"/>
            <path d="M55.979,58.253L36.055,66.224L66.526,72.209L55.979,58.253Z" style="fill:rgb(252,236,220);"/>
            <path d="M123.264,143.659L154.605,129.541L114.068,130.933L123.264,143.659" style="fill:rgb(249,222,129);"/>
            <path d="M115.98,94.7L148.682,48.129L109.921,53.982L106.169,104.51" style="fill:rgb(249,222,129);"/>
            <path d="M70.823,106.268L55.979,58.253L93.051,85.552L70.823,106.268Z" style="fill:rgb(249,222,129);"/>
            <path d="M109.921,53.982L70.823,106.268L123.264,143.659L109.921,53.982Z" style="fill:rgb(253,245,217);"/>
        </g>
    </g>
</svg>
